X:1
T:Title
%%score ( 1 2 ) { 3 | 4 }
L:1/8
Q:1/4=103
M:4/4
K:Bb
V:1 treble nm="Grand Piano, Soprano"
V:2 treble 
V:3 bass nm="Choir Pad, Iowa City, Willilam H. Hartwll"
V:4 bass 
V:1
 (3B[Ac][_Ad] [Ge]2- [Ge][Bd] [Ac]2 | [GB]2 [GB]2- [GB][F_A] [EG]2 | [EG]>[EG] [EG]2 [EF]2 [Ec]2 | %3
w: By~William~H.~Hartwell,~1897 * * * * * *|||
 [EF]2 [DF]6 | [DF]>[DF] [DG]2- [DG][FA] [F=B]2 | c2 z2 z4 | z4 B2 z2 | z8 | %8
w: |||||
 [DB]>[DB] [Fd]2- [Fd][Ec] [DB]2 | [Ec][Fd] [Ec]2 [EB]4 | [EB]>[EB] [=Ec]2- [Ec][EB] [E_A]2 | %11
w: |||
 [=EG]2 [F_A]6 | [^FA]2 [GB]2- [GB][GB] [_Ac]2 | [Bd]2 [ce]>[Bd] [_Ac]4 | %14
w: |||
 [^Fd][Fc] [GB]2 [EG]2 [DG]2- | [DG][DF] E6- | E2 z2 z4 |] %17
w: |||
V:2
 x8 | x8 | x8 | x8 | x8 | EF [Fd]2- [Fd][Fc] [FB]2 | [_DA][DG] [=DF]2 FD [Ec]2- | [Ec][EF] [DB]6 | %8
 x8 | x8 | x8 | x8 | x8 | x8 | x8 | x8 | x8 |] %17
V:3
 (3:2:2B,2 B, B,2- B,E[K:treble] E2 | E2 B,4 B,2 | _D>D C2 C2 C2 | C2[K:bass] B,6 | %4
 B,>B, =B,2- B,C G,2 | A,2 B,2- B,A, B,2 | B,B, B,2 B,2 [F,A,]2- | [F,A,]A, B,6 | %8
 F,>B, _A,2- A,A, A,2 | _A,2 A,2 G,4 | G,>G, G,2- G,[K:treble]C C2 | C2 C6 | %12
 A,2[K:bass] B,2- B,B, C2 | D2[K:treble] E>D C4 | EE E2[K:bass] (3B,F,B, B,2- | B,_A, G,6- | %16
 G,2 z2 z4 |] %17
V:4
 z2 E,2- E,E, E,2 | E,2 E,4 E,2 | E,>E, _A,,2 A,,2 =A,,2 | A,,2 B,,6 | %4
 z z/ _A,/ G,2- G,F,/E,/ D,2 | C,2 B,,2- B,,C, D,2 | =E,E, F,2 D,B,, F,,2- | F,,F, [B,,F,]6 | %8
 B,,>B,, B,,2- B,,B,, B,,2 | B,,2 E,2 E,4 | E,>E, C,2- C,C, C,2 | C,2 F,2 F,,2 F,2 | %12
 ^F,2 G,2- G,G, _A,2 | B,2 C>B, _A,4 | A,A, B,2 (3:2:2z2 D, B,,2- | B,,B,, E,6- | E,2 z2 z4 |] %17

